X:51
T: Siji ge(Lied der Jahrezeiten)
N: C0068
O: China,nan Hunan, Pingjiang
S: I, 518]
N: neues Volkslied.
N: Pinyin-Text des gleichen Titels aus Qinghai vorhanden.
R: Xiaodiao, Qiao shuzhuang, Shidiao, Mengjiangn diao. Geming lishi minge]
M: 4/4
L: 1/16
K: F
F2F2D2C2ccGAc4 | c2cfdcA2G8 |
A2GAd3cc2cAG2FD | FDAcGFD2C8 |
F2CDF4GFGcA4 | GAGFC2FGD8 |
ccGAd3cc2AcG2FD | FDF2z2cAG3AFGFD | C16

@@@ Tune index: 6052
